src/assets/svg/computer.svg

<?xml version="1.0" encoding="UTF-8" standalone="no"?>
<svg width="90px" height="90px" viewBox="0 0 90 90" version="1.1" xmlns="http://www.w3.org/2000/svg" xmlns:xlink="http://www.w3.org/1999/xlink">
    <!-- Generator: Sketch 3.6.1 (26313) - http://www.bohemiancoding.com/sketch -->
    <title>computer</title>
    <desc>Created with Sketch.</desc>
    <defs></defs>
    <g id="Page-1" stroke="none" stroke-width="1" fill="none" fill-rule="evenodd">
        <g id="computer">
            <path d="M58.5,90 L58.5,64" id="Fill-3" fill="#000000"></path>
            <path d="M58.5,90 L58.5,64" id="Stroke-5" stroke="#1D1D1B" stroke-width="3"></path>
            <path d="M38.5,26 L38.5,-9" id="Fill-7" fill="#000000"></path>
            <path d="M38.5,26 L38.5,-9" id="Stroke-9" stroke="#1D1D1B" stroke-width="3"></path>
            <g id="Group-16" transform="translate(24.000000, 25.000000)">
                <path d="M27.1436,15.1444 L28.5846,15.1444 L28.5846,22.5284 C28.5846,24.0804 27.8086,24.9664 26.3126,24.9664 C24.8166,24.9664 24.0406,24.0804 24.0406,22.5284 L24.0406,15.1444 L25.5636,15.1444 L25.5636,22.6244 C25.5636,23.3174 25.8686,23.5664 26.3536,23.5664 C26.8386,23.5664 27.1436,23.3174 27.1436,22.6244 L27.1436,15.1444 Z M21.8796,18.8984 C21.8796,19.5914 21.6166,19.8134 21.1316,19.8134 L20.4106,19.8134 L20.4106,16.5304 L21.1316,16.5304 C21.6166,16.5304 21.8796,16.7514 21.8796,17.4434 L21.8796,18.8984 Z M21.1316,15.1444 L18.8876,15.1444 L18.8876,24.8414 L20.4106,24.8414 L20.4106,21.1984 L21.1316,21.1984 C22.6546,21.1984 23.4036,20.3524 23.4036,18.8024 L23.4036,17.5414 C23.4036,15.9894 22.6546,15.1444 21.1316,15.1444 L21.1316,15.1444 Z M17.9596,17.4714 L17.9596,18.4134 L16.5186,18.4134 L16.5186,17.3754 C16.5186,16.6834 16.2136,16.4194 15.7286,16.4194 C15.2436,16.4194 14.9386,16.6834 14.9386,17.3754 L14.9386,22.6104 C14.9386,23.3034 15.2436,23.5524 15.7286,23.5524 C16.2136,23.5524 16.5186,23.3034 16.5186,22.6104 L16.5186,21.2264 L17.9596,21.2264 L17.9596,22.5144 C17.9596,24.0654 17.1836,24.9524 15.6876,24.9524 C14.1916,24.9524 13.4156,24.0654 13.4156,22.5144 L13.4156,17.4714 C13.4156,15.9204 14.1916,15.0334 15.6876,15.0334 C17.1836,15.0334 17.9596,15.9204 17.9596,17.4714 L17.9596,17.4714 Z M12.6706,29.8124 C11.8526,29.8124 11.1876,29.1474 11.1876,28.3284 L11.1876,11.6724 C11.1876,10.8534 11.8526,10.1874 12.6706,10.1874 L29.3276,10.1874 C30.1476,10.1874 30.8126,10.8534 30.8126,11.6724 L30.8126,28.3284 C30.8126,29.1474 30.1476,29.8124 29.3276,29.8124 L12.6706,29.8124 Z M36.0996,30.2874 C36.0996,32.9404 33.9406,35.1004 31.2876,35.1004 L26.3106,35.1004 C25.6216,35.1004 25.0636,34.5414 25.0636,33.8534 C25.0636,33.1644 25.6226,32.6064 26.3106,32.6064 L31.2876,32.6064 C32.5656,32.6064 33.6066,31.5654 33.6066,30.2874 L33.6066,9.7124 C33.6066,8.4344 32.5656,7.3934 31.2876,7.3934 L10.7116,7.3934 C9.4346,7.3934 8.3936,8.4344 8.3936,9.7124 L8.3936,30.2874 C8.3936,31.5654 9.4326,32.6064 10.7116,32.6064 L15.6896,32.6064 C16.3786,32.6064 16.9366,33.1644 16.9366,33.8534 C16.9366,34.5414 16.3776,35.1004 15.6896,35.1004 L10.7116,35.1004 C8.0586,35.1004 5.9006,32.9404 5.9006,30.2874 L5.9006,9.7124 C5.9006,7.0584 8.0586,4.9004 10.7116,4.9004 L31.2876,4.9004 C33.9406,4.9004 36.0996,7.0594 36.0996,9.7124 L36.0996,30.2874 Z M40.9996,37.6734 L40.9996,2.3264 C40.3486,2.6854 39.5146,2.5904 38.9626,2.0374 C38.4096,1.4854 38.3146,0.6514 38.6736,0.0004 L8.0896,0.0004 L8.0896,0.5874 C8.0896,1.1074 7.6676,1.5304 7.1466,1.5304 C6.6256,1.5304 6.2036,1.1074 6.2036,0.5874 L6.2036,0.0004 L3.3266,0.0004 C3.6856,0.6514 3.5896,1.4854 3.0376,2.0374 C2.4856,2.5904 1.6506,2.6854 0.9996,2.3264 L0.9996,37.6734 C1.6506,37.3144 2.4856,37.4104 3.0376,37.9624 C3.5896,38.5144 3.6856,39.3484 3.3266,40.0004 L6.2036,40.0004 L6.2036,39.4144 C6.2036,38.8924 6.6256,38.4714 7.1466,38.4714 C7.6676,38.4714 8.0896,38.8924 8.0896,39.4144 L8.0896,40.0004 L38.6736,40.0004 C38.3146,39.3484 38.4096,38.5144 38.9626,37.9624 C39.5146,37.4104 40.3486,37.3144 40.9996,37.6734 L40.9996,37.6734 Z" id="Fill-12" fill="#81D4EF"></path>
                <path d="M40.5,37.6736 L40.5,2.3266 C39.849,2.6856 39.014,2.5896 38.462,2.0376 C37.91,1.4856 37.814,0.6506 38.174,-0.0004 L7.59,-0.0004 L7.59,0.5866 C7.59,1.1076 7.168,1.5296 6.647,1.5296 C6.126,1.5296 5.704,1.1076 5.704,0.5866 L5.704,-0.0004 L2.826,-0.0004 C3.186,0.6506 3.09,1.4856 2.538,2.0376 C1.986,2.5896 1.151,2.6856 0.5,2.3266 L0.5,37.6736 C1.151,37.3146 1.986,37.4096 2.538,37.9626 C3.09,38.5146 3.186,39.3486 2.826,39.9996 L5.704,39.9996 L5.704,39.4146 C5.704,38.8926 6.126,38.4716 6.647,38.4716 C7.168,38.4716 7.59,38.8926 7.59,39.4146 L7.59,39.9996 L38.174,39.9996 C37.814,39.3486 37.91,38.5146 38.462,37.9626 C39.014,37.4096 39.849,37.3146 40.5,37.6736 L40.5,37.6736 Z" id="Stroke-14" stroke="#232E38" stroke-width="1.5"></path>
            </g>
        </g>
    </g>
</svg>

<svg height="90" viewBox="0 0 90 90" width="90" xmlns="http://www.w3.org/2000/svg"><g fill="none" fill-rule="evenodd"><path d="m58.5 90v-26" fill="#000"/><path d="m58.5 90v-26" stroke="#1d1d1b" stroke-width="3"/><path d="m38.5 26v-35" fill="#000"/><path d="m38.5 26v-35" stroke="#1d1d1b" stroke-width="3"/><g transform="translate(24 25)"><path d="m27.1436 15.1444h1.441v7.384c0 1.552-.776 2.438-2.272 2.438s-2.272-.886-2.272-2.438v-7.384h1.523v7.48c0 .693.305.942.79.942s.79-.249.79-.942zm-5.264 3.754c0 .693-.263.915-.748.915h-.721v-3.283h.721c.485 0 .748.221.748.913zm-.748-3.754h-2.244v9.697h1.523v-3.643h.721c1.523 0 2.272-.846 2.272-2.396v-1.261c0-1.552-.749-2.397-2.272-2.397zm-3.172 2.327v.942h-1.441v-1.038c0-.692-.305-.956-.79-.956s-.79.264-.79.956v5.235c0 .693.305.942.79.942s.79-.249.79-.942v-1.384h1.441v1.288c0 1.551-.776 2.438-2.272 2.438s-2.272-.887-2.272-2.438v-5.043c0-1.551.776-2.438 2.272-2.438s2.272.887 2.272 2.438zm-5.289 12.341c-.818 0-1.483-.665-1.483-1.484v-16.656c0-.819.665-1.485 1.483-1.485h16.657c.82 0 1.485.666 1.485 1.485v16.656c0 .819-.665 1.484-1.485 1.484zm23.429.475c0 2.653-2.159 4.813-4.812 4.813h-4.977c-.689 0-1.247-.559-1.247-1.247 0-.689.559-1.247 1.247-1.247h4.977c1.278 0 2.319-1.041 2.319-2.319v-20.575c0-1.278-1.041-2.319-2.319-2.319h-20.576c-1.277 0-2.318 1.041-2.318 2.319v20.575c0 1.278 1.039 2.319 2.318 2.319h4.978c.689 0 1.247.558 1.247 1.247 0 .688-.559 1.247-1.247 1.247h-4.978c-2.653 0-4.811-2.16-4.811-4.813v-20.575c0-2.654 2.158-4.812 4.811-4.812h20.576c2.653 0 4.812 2.159 4.812 4.812zm4.9 7.386v-35.347c-.651.359-1.485.264-2.037-.289-.553-.552-.648-1.386-.289-2.037h-30.584v.587c0 .52-.422.943-.943.943s-.943-.423-.943-.943v-.587h-2.877c.359.651.263 1.485-.289 2.037-.552.553-1.387.648-2.038.289v35.347c.651-.359 1.486-.263 2.038.289s.648 1.386.289 2.038h2.877v-.586c0-.522.422-.943.943-.943s.943.421.943.943v.586h30.584c-.359-.652-.264-1.486.289-2.038.552-.552 1.386-.648 2.037-.289z" fill="#81d4ef"/><path d="m40.5 37.6736v-35.347c-.651.359-1.486.263-2.038-.289s-.648-1.387-.288-2.038h-30.584v.587c0 .521-.422.943-.943.943s-.943-.422-.943-.943v-.587h-2.878c.36.651.264 1.486-.288 2.038s-1.387.648-2.038.289v35.347c.651-.359 1.486-.264 2.038.289.552.552.648 1.386.288 2.037h2.878v-.585c0-.522.422-.943.943-.943s.943.421.943.943v.585h30.584c-.36-.651-.264-1.485.288-2.037.552-.553 1.387-.648 2.038-.289z" stroke="#232e38" stroke-width="1.5"/></g></g></svg>
